X:1
T: The Humours of Boston
C:
R:Reel
Q: 232
K:Bb
M:4/4
L:1/8
|:FE|DF GA B2 B2|AB cd e2 e2|df dB ce cA|cB AG F2 FE|
DF GA B2 B2|AB cd e2 e2|df dB ce cA|B2 B2 B2:|
|:de|fd fd b2 ag|fe dc B2 cd|ef gf ed cC|AB cA F2 FE|
DF BD EG cB|AB cd eg fe|df dB ce cA|B2 B2 B2:|
